X:155
T:Life of Pleasure. WCD3/6.155
A: England; London
O:
M:6/8
L:1/8
Z:vmp.Peter Dunk.2011.from a transcription by Paul Dennant
B:John Walsh Jr. The Compleat Country Dancing Master.Vol 6 1756
Q:3/8=100
K:C %I suspect this tune is modal
% and the correct key is C Lydian(PD)
G|E>DC c>BA|G>FE F>EF|D>EF E>DC|G3 G2 F|EGc A2 G|^FAc BAG|
^FGA DG^F|G3-G2::B/c/|d>cB f>ed|c>BA ^G^FE|
A>Bc DA^G|A2-A2 A/B/|cGE ADF|EDC G2 F|
EGc A2 d|BAG c2 d|edc GcB|c3-c2:|

